svgs/duotone/cable-car.svg

<svg xmlns="http://www.w3.org/2000/svg" viewBox="0 0 512 512"><!--! Font Awesome Pro 6.5.1 by @fontawesome - https://fontawesome.com License - https://fontawesome.com/license (Commercial License) Copyright 2023 Fonticons, Inc. --><defs><style>.fa-secondary{opacity:.4}</style></defs><path class="fa-secondary" d="M492.9 103.5c13-2.7 21.3-15.4 18.6-28.4s-15.4-21.3-28.4-18.6l-232 48-232 48c-13 2.7-21.3 15.4-18.6 28.4s15.4 21.3 28.4 18.6l203.1-42V200v24h48V200 147.5l212.9-44zM96 288c-8.8 0-16 7.2-16 16v64c0 8.8 7.2 16 16 16h64c8.8 0 16-7.2 16-16V304c0-8.8-7.2-16-16-16H96zm112 16v64c0 8.8 7.2 16 16 16h64c8.8 0 16-7.2 16-16V304c0-8.8-7.2-16-16-16H224c-8.8 0-16 7.2-16 16zm144-16c-8.8 0-16 7.2-16 16v64c0 8.8 7.2 16 16 16h64c8.8 0 16-7.2 16-16V304c0-8.8-7.2-16-16-16H352z"/><path class="fa-primary" d="M320 32a32 32 0 1 0 -64 0 32 32 0 1 0 64 0zM192 88a32 32 0 1 0 0-64 32 32 0 1 0 0 64zM96 224c-35.3 0-64 28.7-64 64V448c0 35.3 28.7 64 64 64H416c35.3 0 64-28.7 64-64V288c0-35.3-28.7-64-64-64H96zm0 64h64c8.8 0 16 7.2 16 16v64c0 8.8-7.2 16-16 16H96c-8.8 0-16-7.2-16-16V304c0-8.8 7.2-16 16-16zm112 16c0-8.8 7.2-16 16-16h64c8.8 0 16 7.2 16 16v64c0 8.8-7.2 16-16 16H224c-8.8 0-16-7.2-16-16V304zm144-16h64c8.8 0 16 7.2 16 16v64c0 8.8-7.2 16-16 16H352c-8.8 0-16-7.2-16-16V304c0-8.8 7.2-16 16-16z"/></svg>

<svg xmlns="http://www.w3.org/2000/svg" viewBox="0 0 512 512"><!--! Font Awesome Pro 6.1.1 by @fontawesome - https://fontawesome.com License - https://fontawesome.com/license (Commercial License) Copyright 2022 Fonticons, Inc. --><defs><style>.fa-secondary{opacity:.4}</style></defs><path class="fa-primary" d="M320 32C320 49.67 305.7 64 288 64C270.3 64 256 49.67 256 32C256 14.33 270.3 0 288 0C305.7 0 320 14.33 320 32zM160 56C160 38.33 174.3 24 192 24C209.7 24 224 38.33 224 56C224 73.67 209.7 88 192 88C174.3 88 160 73.67 160 56zM416 224C451.3 224 480 252.7 480 288V448C480 483.3 451.3 512 416 512H96C60.65 512 32 483.3 32 448V288C32 252.7 60.65 224 96 224H416zM96 288C87.16 288 80 295.2 80 304V368C80 376.8 87.16 384 96 384H160C168.8 384 176 376.8 176 368V304C176 295.2 168.8 288 160 288H96zM208 368C208 376.8 215.2 384 224 384H288C296.8 384 304 376.8 304 368V304C304 295.2 296.8 288 288 288H224C215.2 288 208 295.2 208 304V368zM352 288C343.2 288 336 295.2 336 304V368C336 376.8 343.2 384 352 384H416C424.8 384 432 376.8 432 368V304C432 295.2 424.8 288 416 288H352z"/><path class="fa-secondary" d="M280 147.5V224H232V157.5L28.86 199.5C15.88 202.2 3.183 193.8 .4976 180.9C-2.188 167.9 6.157 155.2 19.14 152.5L483.1 56.5C496.1 53.81 508.8 62.16 511.5 75.14C514.2 88.12 505.8 100.8 492.9 103.5L280 147.5zM160 288C168.8 288 176 295.2 176 304V368C176 376.8 168.8 384 160 384H96C87.16 384 80 376.8 80 368V304C80 295.2 87.16 288 96 288H160zM208 304C208 295.2 215.2 288 224 288H288C296.8 288 304 295.2 304 304V368C304 376.8 296.8 384 288 384H224C215.2 384 208 376.8 208 368V304zM416 288C424.8 288 432 295.2 432 304V368C432 376.8 424.8 384 416 384H352C343.2 384 336 376.8 336 368V304C336 295.2 343.2 288 352 288H416z"/></svg>
